icon/cg/options.svg

<svg viewBox="0 0 24 24" fill="none" xmlns="http://www.w3.org/2000/svg" height="1em" width="1em">
  <path fill-rule="evenodd" clip-rule="evenodd" d="M7 3C8.86384 3 10.4299 4.27477 10.874 6H19V8H10.874C10.4299 9.72523 8.86384 11 7 11C4.79086 11 3 9.20914 3 7C3 4.79086 4.79086 3 7 3ZM7 9C8.10457 9 9 8.10457 9 7C9 5.89543 8.10457 5 7 5C5.89543 5 5 5.89543 5 7C5 8.10457 5.89543 9 7 9Z" fill="currentColor"/>
  <path fill-rule="evenodd" clip-rule="evenodd" d="M17 20C15.1362 20 13.5701 18.7252 13.126 17H5V15H13.126C13.5701 13.2748 15.1362 12 17 12C19.2091 12 21 13.7909 21 16C21 18.2091 19.2091 20 17 20ZM17 18C18.1046 18 19 17.1046 19 16C19 14.8954 18.1046 14 17 14C15.8954 14 15 14.8954 15 16C15 17.1046 15.8954 18 17 18Z" fill="currentColor"/>
</svg>

<svg width="24" height="24" fill="none" xmlns="http://www.w3.org/2000/svg"><path fill-rule="evenodd" clip-rule="evenodd" d="M7 3a4.002 4.002 0 0 1 3.874 3H19v2h-8.126A4.002 4.002 0 0 1 3 7a4 4 0 0 1 4-4Zm0 6a2 2 0 1 0 0-4 2 2 0 0 0 0 4ZM17 20a4.002 4.002 0 0 1-3.874-3H5v-2h8.126A4.002 4.002 0 0 1 21 16a4 4 0 0 1-4 4Zm0-2a2 2 0 1 0 0-4 2 2 0 0 0 0 4Z" fill="currentColor"/></svg>
